modules/stroke-7/icons/home.svg

<?xml version="1.0" encoding="utf-8"?>
<!-- Generated by IcoMoon.io -->
<!DOCTYPE svg PUBLIC "-//W3C//DTD SVG 1.1//EN" "http://www.w3.org/Graphics/SVG/1.1/DTD/svg11.dtd">
<svg version="1.1" xmlns="http://www.w3.org/2000/svg" xmlns:xlink="http://www.w3.org/1999/xlink" width="32" height="32" viewBox="0 0 32 32">
<g id="icomoon-ignore">
</g>
<path d="M16 2.672l-5.331 5.331v-2.133h-4.265v6.398l-3.755 3.755 0.754 0.754 12.597-12.597 12.597 12.597 0.754-0.754-13.351-13.351zM7.47 6.937h2.132v2.132l-2.133 2.133v-4.265z" fill="#000000"></path>
<path d="M6.404 16.533v12.795h7.464v-7.464h4.265v7.464h7.464v-12.795l-9.596-9.596-9.596 9.596zM24.53 28.262h-5.331v-7.464h-6.398v7.464h-5.331v-11.287l8.53-8.53 8.53 8.53v11.287z" fill="#000000"></path>
</svg>

<svg xmlns="http://www.w3.org/2000/svg" width="32" height="32" viewBox="0 0 32 32"><path d="M16 2.672l-5.331 5.331V5.87H6.404v6.398l-3.755 3.755.754.754L16 4.18l12.597 12.597.754-.754L16 2.672zM7.47 6.937h2.132v2.132l-2.133 2.133V6.937z"/><path d="M6.404 16.533v12.795h7.464v-7.464h4.265v7.464h7.464V16.533l-9.596-9.596-9.596 9.596zM24.53 28.262h-5.331v-7.464h-6.398v7.464H7.47V16.975L16 8.445l8.53 8.53v11.287z"/></svg>
